X:1404
T:D'r Maia
O:england
M:4/4
R:Branle
K:Gm
"Gm"G4 "F"A4 | "Eb"BBAG "F"AcBA |]\
"Gm"G4 "F"A4 | "Eb"BBAG "D"A4 | "F"ABcA "Eb"B3A | \
"Gm7"GG "C#"BA "D"^F3D | "D/C"^FGAF | "Gm/B"G8 |]
